src/assets/images/icons/filter-icon.svg

<svg width="40" height="35" viewBox="0 0 40 35" fill="none" xmlns="http://www.w3.org/2000/svg">
<path fill-rule="evenodd" clip-rule="evenodd" d="M10.4995 1C11.1294 1 11.7335 1.25022 12.1789 1.69563C12.6243 2.14103 12.8745 2.74512 12.8745 3.37502V8.12505C12.8745 8.75494 12.6243 9.35903 12.1789 9.80443C11.7335 10.2498 11.1294 10.5001 10.4995 10.5001C9.86963 10.5001 9.26554 10.2498 8.82014 9.80443C8.37474 9.35903 8.12451 8.75494 8.12451 8.12505V3.37502C8.12451 2.74512 8.37474 2.14103 8.82014 1.69563C9.26554 1.25022 9.86963 1 10.4995 1V1Z" fill="black" stroke="black" stroke-linecap="round" stroke-linejoin="round"/>
<path fill-rule="evenodd" clip-rule="evenodd" d="M38.9997 5.75006H12.8745Z" fill="black"/>
<path d="M38.9997 5.75006H12.8745" stroke="black" stroke-linecap="round" stroke-linejoin="round"/>
<path fill-rule="evenodd" clip-rule="evenodd" d="M8.12504 5.75006H1Z" fill="black"/>
<path d="M8.12504 5.75006H1" stroke="black" stroke-linecap="round" stroke-linejoin="round"/>
<path fill-rule="evenodd" clip-rule="evenodd" d="M10.4995 24.7502C11.1294 24.7502 11.7335 25.0004 12.1789 25.4458C12.6243 25.8912 12.8745 26.4953 12.8745 27.1252V31.8752C12.8745 32.5051 12.6243 33.1092 12.1789 33.5546C11.7335 34 11.1294 34.2502 10.4995 34.2502C9.86963 34.2502 9.26554 34 8.82014 33.5546C8.37474 33.1092 8.12451 32.5051 8.12451 31.8752V27.1252C8.12451 26.4953 8.37474 25.8912 8.82014 25.4458C9.26554 25.0004 9.86963 24.7502 10.4995 24.7502Z" fill="black" stroke="black" stroke-linecap="round" stroke-linejoin="round"/>
<path fill-rule="evenodd" clip-rule="evenodd" d="M38.9997 29.5003H12.8745Z" fill="black"/>
<path d="M38.9997 29.5003H12.8745" stroke="black" stroke-linecap="round" stroke-linejoin="round"/>
<path fill-rule="evenodd" clip-rule="evenodd" d="M8.12504 29.5003H1Z" fill="black"/>
<path d="M8.12504 29.5003H1" stroke="black" stroke-linecap="round" stroke-linejoin="round"/>
<path fill-rule="evenodd" clip-rule="evenodd" d="M29.5 12.8751C30.1299 12.8751 30.734 13.1253 31.1794 13.5707C31.6248 14.0162 31.875 14.6202 31.875 15.2501V20.0002C31.875 20.6301 31.6248 21.2342 31.1794 21.6796C30.734 22.125 30.1299 22.3752 29.5 22.3752C28.8701 22.3752 28.266 22.125 27.8206 21.6796C27.3752 21.2342 27.125 20.6301 27.125 20.0002V15.2501C27.125 14.6202 27.3752 14.0162 27.8206 13.5707C28.266 13.1253 28.8701 12.8751 29.5 12.8751V12.8751Z" fill="black" stroke="black" stroke-linecap="round" stroke-linejoin="round"/>
<path fill-rule="evenodd" clip-rule="evenodd" d="M27.1252 17.6252H1Z" fill="black"/>
<path d="M27.1252 17.6252H1" stroke="black" stroke-linecap="round" stroke-linejoin="round"/>
<path fill-rule="evenodd" clip-rule="evenodd" d="M39 17.6252H31.875Z" fill="black"/>
<path d="M39 17.6252H31.875" stroke="black" stroke-linecap="round" stroke-linejoin="round"/>
</svg>

<svg width="40" height="35" fill="none" xmlns="http://www.w3.org/2000/svg"><path fill-rule="evenodd" clip-rule="evenodd" d="M10.5 1a2.375 2.375 0 0 1 2.374 2.375v4.75a2.375 2.375 0 1 1-4.75 0v-4.75A2.375 2.375 0 0 1 10.5 1v0Z" fill="#000" stroke="#000" stroke-linecap="round" stroke-linejoin="round"/><path fill-rule="evenodd" clip-rule="evenodd" d="M39 5.75H12.874Z" fill="#000"/><path d="M39 5.75H12.874" stroke="#000" stroke-linecap="round" stroke-linejoin="round"/><path fill-rule="evenodd" clip-rule="evenodd" d="M8.125 5.75H1Z" fill="#000"/><path d="M8.125 5.75H1" stroke="#000" stroke-linecap="round" stroke-linejoin="round"/><path fill-rule="evenodd" clip-rule="evenodd" d="M10.5 24.75a2.375 2.375 0 0 1 2.374 2.375v4.75a2.375 2.375 0 1 1-4.75 0v-4.75A2.375 2.375 0 0 1 10.5 24.75Z" fill="#000" stroke="#000" stroke-linecap="round" stroke-linejoin="round"/><path fill-rule="evenodd" clip-rule="evenodd" d="M39 29.5H12.874Z" fill="#000"/><path d="M39 29.5H12.874" stroke="#000" stroke-linecap="round" stroke-linejoin="round"/><path fill-rule="evenodd" clip-rule="evenodd" d="M8.125 29.5H1Z" fill="#000"/><path d="M8.125 29.5H1" stroke="#000" stroke-linecap="round" stroke-linejoin="round"/><path fill-rule="evenodd" clip-rule="evenodd" d="M29.5 12.875a2.375 2.375 0 0 1 2.375 2.375V20a2.375 2.375 0 1 1-4.75 0v-4.75a2.375 2.375 0 0 1 2.375-2.375v0Z" fill="#000" stroke="#000" stroke-linecap="round" stroke-linejoin="round"/><path fill-rule="evenodd" clip-rule="evenodd" d="M27.125 17.625H1Z" fill="#000"/><path d="M27.125 17.625H1" stroke="#000" stroke-linecap="round" stroke-linejoin="round"/><path fill-rule="evenodd" clip-rule="evenodd" d="M39 17.625h-7.125Z" fill="#000"/><path d="M39 17.625h-7.125" stroke="#000" stroke-linecap="round" stroke-linejoin="round"/></svg>
